svg/furkot/freepik/villa.svg

<svg viewBox="0 0 512 512" xmlns="http://www.w3.org/2000/svg"><path d="m24.058 506.821h87.751 26.208 66.068 27.681 253.626v-323.916h27.65l-13.162-132.177c-.452-25.138-23.136-44.504-50.826-44.504h-385.066c-27.69 0-50.374 19.366-50.826 44.504l-13.162 132.177h24.058zm422.073-29.447h-33.943v-51.944c0-14.567-11.809-26.385-26.385-26.385s-26.385 11.808-26.385 26.385v51.944h-50.707v-78.526h-118.877l-.314 78.526h-42.355v-51.944c0-14.567-11.809-26.385-26.385-26.385s-26.385 11.808-26.385 26.385v51.944h-31.075v-294.469h382.81v294.469zm-396.061-430.592c.029-4.418 5.751-11.112 13.918-11.112h385.067c8.177 0 13.899 6.478 13.919 10.895l10.993 97.078h-434.891z"/><path d="m153.614 269.607h-6.438v-29.035c0-14.566-11.809-26.385-26.385-26.385s-26.385 11.809-26.385 26.385v29.035h-6.439v11.043h65.647zm88.341 0h-6.439v-29.035c0-14.566-11.808-26.385-26.385-26.385-14.576 0-26.384 11.809-26.384 26.385v29.035h-6.439v11.043h65.647zm88.342 0h-6.439v-29.035c0-14.566-11.808-26.385-26.385-26.385s-26.385 11.809-26.385 26.385v29.035h-6.438v11.043h65.647c0-.002 0-11.043 0-11.043zm88.34 0h-6.438v-29.035c0-14.566-11.809-26.385-26.385-26.385-14.577 0-26.385 11.809-26.385 26.385v29.035h-6.439v11.043h65.647c0-.002 0-11.043 0-11.043zm-265.023 88.34h-6.438v-29.035c0-14.567-11.809-26.385-26.385-26.385s-26.385 11.808-26.385 26.385v29.034h-6.439v11.043h65.647zm88.341 0h-6.439v-29.035c0-14.567-11.808-26.385-26.385-26.385-14.576 0-26.384 11.808-26.384 26.385v29.034h-6.439v11.043h65.647zm88.342 0h-6.439v-29.035c0-14.567-11.808-26.385-26.385-26.385s-26.385 11.808-26.385 26.385v29.034h-6.438v11.043h65.647zm88.34 0h-6.438v-29.035c0-14.567-11.809-26.385-26.385-26.385-14.577 0-26.385 11.808-26.385 26.385v29.034h-6.439v11.043h65.647z"/></svg>

<svg xmlns="http://www.w3.org/2000/svg" viewBox="0 0 512 512"><path d="M24.058 506.821H111.809 138.017 204.085 231.766 485.392V182.905H513.042L499.88 50.728C499.428 25.59 476.744 6.224 449.054 6.224H63.988C36.298 6.224 13.614 25.59 13.162 50.728L0 182.905H24.058V506.821ZM446.131 477.374H412.188V425.43C412.188 410.863 400.379 399.045 385.803 399.045 371.227 399.045 359.418 410.853 359.418 425.43V477.374H308.711V398.848H189.834L189.52 477.374H147.165V425.43C147.165 410.863 135.356 399.045 120.78 399.045S94.395 410.853 94.395 425.43V477.374H63.32V182.905H446.13V477.374ZM50.07 46.782C50.099 42.364 55.821 35.67 63.988 35.67H449.055C457.232 35.67 462.954 42.148 462.974 46.565L473.967 143.643H39.076L50.07 46.782Z"/><path d="M153.614 269.607H147.176V240.572C147.176 226.006 135.367 214.187 120.791 214.187S94.406 225.996 94.406 240.572V269.607H87.967V280.65H153.614V269.607ZM241.955 269.607H235.516V240.572C235.516 226.006 223.708 214.187 209.131 214.187 194.555 214.187 182.747 225.996 182.747 240.572V269.607H176.308V280.65H241.955V269.607ZM330.297 269.607H323.858V240.572C323.858 226.006 312.05 214.187 297.473 214.187S271.088 225.996 271.088 240.572V269.607H264.65V280.65H330.297C330.297 280.648 330.297 269.607 330.297 269.607ZM418.637 269.607H412.199V240.572C412.199 226.006 400.39 214.187 385.814 214.187 371.237 214.187 359.429 225.996 359.429 240.572V269.607H352.99V280.65H418.637C418.637 280.648 418.637 269.607 418.637 269.607ZM153.614 357.947H147.176V328.912C147.176 314.345 135.367 302.527 120.791 302.527S94.406 314.335 94.406 328.912V357.946H87.967V368.989H153.614V357.947ZM241.955 357.947H235.516V328.912C235.516 314.345 223.708 302.527 209.131 302.527 194.555 302.527 182.747 314.335 182.747 328.912V357.946H176.308V368.989H241.955V357.947ZM330.297 357.947H323.858V328.912C323.858 314.345 312.05 302.527 297.473 302.527S271.088 314.335 271.088 328.912V357.946H264.65V368.989H330.297C330.297 368.989 330.297 357.947 330.297 357.947ZM418.637 357.947H412.199V328.912C412.199 314.345 400.39 302.527 385.814 302.527 371.237 302.527 359.429 314.335 359.429 328.912V357.946H352.99V368.989H418.637C418.637 368.989 418.637 357.947 418.637 357.947Z"/></svg>
